X:1
T:Title
%%score 1 2
L:1/8
Q:1/4=110
M:4/4
K:D
V:1 treble nm="Grand Piano, Soprano"
V:2 bass nm="Choir Pad, Burgos, Daniel B. Towner"
V:1
 [DF]3 [DE] D2 [DF]2 | [FA]2 [Ad]2 [Ac]2 [GB]2 | [FA]3 [DF] D2 [DE]2 | [DF]2 [DA]2 [CE]4 | %4
w: By~Daniel~Brink~Towner,~1893 * * *||||
 [DF]3 [DE] D2 [DF]2 | [FA]2 [Ad]2 [Ac]2 [GB]2 | [FA]3 [Fd] [GB]2 [DG]2 | [DF]3 [CE] D4 | %8
w: ||||
 [CE]3 [DF] [EG]2 [CE]2 | [DF]3 [EG] [FA]2 [DF]2 | [CE]3 [DF] [EG]2 E2 | [DF]2 [GB]2 [FA]4 | %12
w: ||||
 [Fd]3 [Fd] [Fd]2 [Fd]2 | [Ge]2 [Bd]2 [Ac]2 [GB]2 | [FA]3 [Fd] [GB]2 [DG]2 | [DF]3 [CE] D4- | %16
w: ||||
 D4 z4 |] %17
w: |
V:2
 [D,A,]3 [E,G,] [D,F,]2 [D,A,]2 | [D,D]2 [F,D]2 [G,D]2 [G,D]2 | [D,D]3 [D,A,] [D,F,]2 [D,F,]2 | %3
 [D,A,]2 [F,A,]2 A,4 | [D,A,]3 [D,G,] [D,F,]2 [D,A,]2 | [D,D]2 [F,D]2 [G,D]2 [G,D]2 | %6
 [D,D]3 [D,D] [G,D]2 [G,B,]2 | A,3 [A,,G,] [D,F,]4 | [A,,A,]3 [A,,A,] [A,,A,]2 [A,,A,]2 | %9
 [D,A,]3 [D,D] [D,D]2 [D,A,]2 | [G,A,]3 [F,A,] [E,A,]2 [C,A,]2 | [D,A,]2 [D,D]2 [D,D]4 | %12
 [D,A,]3 [D,A,] [D,A,]2 [D,A,]2 | [F,A,]2 [G,D]2 [G,D]2 [G,D]2 | [D,D]3 [D,D] [G,D]2 [G,B,]2 | %15
 A,3 [A,,G,] [D,F,]4- | [D,F,]4 z4 |] %17

